X:90
T:Glen Cottage, The
R:polka
H:See also "Dennis Doody's", #21
H:Related to the Scottish strathspey/reel Alister McAlister
H:(Alasdair Mac Alasdair)
Z:id:hn-polka-90
M:2/4
L:1/8
K:Edor
|:B>A GE |ED B,E|E>F GF|ED GA|B>A GE|ED B,E|E2 B>A|GF E2||
|:B>A Be|e>f eB|BA B/d/e|df e2|ef ga/g/|fg/f/ ed|BA BE|E/F/G/A/ B2:|



